lib/healthicons/icons/solid/symbols/diabetes.svg

<svg fill="none" height="48" viewBox="0 0 48 48" width="48" xmlns="http://www.w3.org/2000/svg"><g fill="#333"><path d="m42.9822 28.942c.0013 1.6-1.3176 2.8582-2.9976 2.8596s-3.0011-1.2547-3.0024-2.8547 2.9958-5.1453 2.9958-5.1453 3.003 3.6547 3.0042 5.1404z"/><path clip-rule="evenodd" d="m24.1256 17.5979 17.7191-.0145c1.1753-.001 2.1289.951 2.1298 2.1263.001 1.1753-.951 2.1289-2.1263 2.1299h-.0051c.0859-.1675.1329-.3494.1327-.5396-.0006-.8284-.8966-1.4992-2.0012-1.4983s-1.9994.6732-1.9988 1.5016c.0002.1902.0475.372.1337.5393l-13.0221.0107.0009 1.064 6.8889-.0056c1.1045-.0009 2.0007.8938 2.0016 1.9983l.0002.2562c.0009 1.1046-.8938 2.0007-1.9984 2.0016l-6.8888.0057.0008 1.064 5.7778-.0047c1.1046-.0009 2.0007.8938 2.0016 1.9984l.0003.2561c.0009 1.1046-.8938 2.0007-1.9984 2.0017l-8 .0065.0009 1.064 4.1111-.0033c1.1045-.0009 2.0007.8938 2.0016 1.9983l.0002.2562c.0009 1.1046-.8938 2.0007-1.9983 2.0016l-7.4445.0061-4.0993.0034c-6.32712.0052-11.46043-5.1197-11.46562-11.4468-.00381-4.6546 2.80896-8.8488 7.11672-10.6119l12.8827-5.2728c.9736-.3985 2.0935-.0882 2.7232.7546.8803 1.1782.4488 2.8681-.8885 3.4802l-2.1054.9635c-.9771.4471-.6576 1.9102.4169 1.9093z" fill-rule="evenodd"/></g></svg>

<svg width="48" height="48" viewBox="0 0 48 48" fill="none" xmlns="http://www.w3.org/2000/svg">
<path d="M42.9822 28.9419C42.9835 30.5419 41.6646 31.8001 39.9846 31.8015C38.3046 31.8029 36.9835 30.5468 36.9822 28.9468C36.9809 27.3468 39.978 23.8015 39.978 23.8015C39.978 23.8015 42.981 27.4562 42.9822 28.9419Z" fill="#333333"/>
<path fill-rule="evenodd" clip-rule="evenodd" d="M24.1256 17.5979L41.8447 17.5834C43.02 17.5824 43.9736 18.5344 43.9745 19.7097C43.9755 20.885 43.0235 21.8386 41.8482 21.8396L41.8431 21.8396C41.929 21.6721 41.976 21.4902 41.9758 21.3C41.9752 20.4716 41.0792 19.8008 39.9746 19.8017C38.87 19.8026 37.9752 20.4749 37.9758 21.3033C37.976 21.4935 38.0233 21.6753 38.1095 21.8426L25.0874 21.8533L25.0883 22.9173L31.9772 22.9117C33.0817 22.9108 33.9779 23.8055 33.9788 24.91L33.979 25.1662C33.9799 26.2708 33.0852 27.1669 31.9806 27.1678L25.0918 27.1735L25.0926 28.2375L30.8704 28.2328C31.975 28.2319 32.8711 29.1266 32.872 30.2312L32.8723 30.4873C32.8732 31.5919 31.9785 32.488 30.8739 32.489L22.8739 32.4955L22.8748 33.5595L26.9859 33.5562C28.0904 33.5553 28.9866 34.45 28.9875 35.5545L28.9877 35.8107C28.9886 36.9153 28.0939 37.8114 26.9894 37.8123L19.5449 37.8184L15.4456 37.8218C9.11848 37.827 3.98517 32.7021 3.97998 26.375C3.97617 21.7204 6.78894 17.5262 11.0967 15.7631L23.9794 10.4903C24.953 10.0918 26.0729 10.4021 26.7026 11.2449C27.5829 12.4231 27.1514 14.113 25.8141 14.7251L23.7087 15.6886C22.7316 16.1357 23.0511 17.5988 24.1256 17.5979Z" fill="#333333"/>
</svg>
